X: 05093
T: VAN PESKI'S PACHYDERM
C: Bob McQuillen  15 Mar 81
B: Bob's Note Book 5 #93
R: jig
Z: 2005 John Chambers <jc:trillian.mit.edu>
M: 6/8
L: 1/8
K: Em
B, \
| EB,E GAB | dBd e2d | Bed BGB | dBG AFD |\
| EB,E GAB | dBG A2B | EGE BGE | DB,D E2 :|
|: F \
| GAG GBd | DED  D2A | Bed BGA | Bee e2g |\
| dBG ABG | EDB, D2E | GBe dBA | GEE E2 :|
%%begintext align
%% You'll just have to ask Jeff Van Peski about this one.
%% After all, it was _his_ elephant in the first place!
%%endtext

% %newpage

%%sep 1 1 500

